!!!OTL: ICH HAB MEIN SACH AUF NICHTS GESTELLT
!!!ARE: Europa, Mitteleuropa, Deutschland
!!!SCT: F0045
!!!YEM: Copyright 1995, estate of Helmut Schaffrath.
**kern
*ICvox
*Ivox
*M4/4
*k[f#c#]
*D:
{4A
=1
4d
4c#
4d
4e
=2
4.f#
8e
4d
4f#
=3
2e
4r}
{4A
=4
4e
4d
4e
4f#
=5
4.g
8f#
4e
4e
=6
2f#
4r}
{4f#
=7
4.f#
8f#
4f#
4e
=8
4d
4c#
4d}
{4B
=9
4.e
8e
4e
4d
=10
4c#
8B
8B
4c#}
{4A
=11
4.f#
8e
4d
4c#
=12
4B
4B
4d}
{4B
=13
4A
4d
4c#
4e
=14
4d
2r}
==
!!!AGN: Trink - Lied
!!!ONB: ESAC (Essen Associative Code) Database: FINK
!!!AMT: simple quadruple
!!!AIN: vox
!!!EED: Helmut Schaffrath
!!!EEV: 1.0
*-
